polaris-icons/icons/newicons/LinkMinor.svg

<svg width="20" height="20" viewBox="0 0 20 20" fill="none" xmlns="http://www.w3.org/2000/svg">
<path fill-rule="evenodd" clip-rule="evenodd" d="M15.8424 4.17584C14.3794 2.71287 12.0075 2.71287 10.5445 4.17584L8.4279 6.29243C6.95981 7.76052 6.96398 10.1421 8.43721 11.605L8.7764 11.9418C9.07032 12.2337 9.54519 12.232 9.83705 11.9381C10.1289 11.6442 10.1273 11.1693 9.83334 10.8775L9.49415 10.5406C8.61021 9.66287 8.60771 8.23394 9.48856 7.35309L11.6052 5.2365C12.4823 4.35932 13.9045 4.35932 14.7817 5.2365C15.6605 6.11527 15.6587 7.54059 14.7776 8.41711L13.7256 9.46374C13.432 9.75589 13.4308 10.2308 13.7229 10.5244C14.0151 10.818 14.4899 10.8193 14.7836 10.5271L15.8356 9.48048C17.3049 8.01862 17.308 5.64145 15.8424 4.17584ZM4.1785 15.8458C5.64296 17.3103 8.01733 17.3103 9.4818 15.8458L11.6031 13.7245C13.0676 12.26 13.0676 9.88567 11.6031 8.4212L11.2411 8.05919C10.9482 7.7663 10.4733 7.7663 10.1804 8.05919C9.88755 8.35208 9.88755 8.82696 10.1804 9.11985L10.5425 9.48186C11.4211 10.3605 11.4211 11.7852 10.5425 12.6638L8.42114 14.7852C7.54246 15.6638 6.11784 15.6638 5.23916 14.7852C4.36048 13.9065 4.36048 12.4819 5.23916 11.6032L6.30812 10.5342C6.60102 10.2413 6.60102 9.76645 6.30812 9.47356C6.01523 9.18066 5.54036 9.18066 5.24746 9.47356L4.1785 10.5425C2.71403 12.007 2.71403 14.3814 4.1785 15.8458Z" fill="black"/>
</svg>

<svg viewBox="0 0 20 20" fill="none" xmlns="http://www.w3.org/2000/svg"><path fill-rule="evenodd" clip-rule="evenodd" d="M15.842 4.176a3.746 3.746 0 0 0-5.298 0l-2.116 2.116a3.75 3.75 0 0 0 .01 5.313l.338.337a.75.75 0 1 0 1.057-1.065l-.339-.336a2.25 2.25 0 0 1-.005-3.188l2.116-2.116a2.246 2.246 0 1 1 3.173 3.18l-1.052 1.047a.75.75 0 0 0 1.058 1.063l1.052-1.047a3.746 3.746 0 0 0 .006-5.304Zm-11.664 11.67a3.75 3.75 0 0 0 5.304 0l2.121-2.121a3.75 3.75 0 0 0 0-5.304l-.362-.362a.75.75 0 0 0-1.06 1.06l.362.363a2.25 2.25 0 0 1 0 3.182l-2.122 2.121a2.25 2.25 0 0 1-3.182-3.182l1.07-1.069a.75.75 0 1 0-1.062-1.06l-1.069 1.069a3.75 3.75 0 0 0 0 5.303Z" fill="#5C5F62"/></svg>
